svg/apple.svg

<svg viewBox="0 0 20 20" xmlns="http://www.w3.org/2000/svg">
<rect width="100%" height="100%" fill="black"/>
<path d="M9.96598 5.27087C11.839 5.44882 13.4555 3.31346 13.1871 1.5C12.7253 1.53589 12.2753 1.66555 11.864 1.88127C11.4527 2.09698 11.0885 2.39434 10.793 2.75563C10.4881 3.09228 10.2569 3.49036 10.1144 3.9238C9.97184 4.35724 9.92128 4.81627 9.96598 5.27087Z" fill="white"/>
<path d="M15.8121 14.7421C16.0802 14.2458 16.2977 13.7233 16.4615 13.1825C15.2239 12.5787 14.4502 11.635 14.3654 10.2174C14.2805 8.79982 14.922 7.75813 16.0568 6.98836L15.972 6.8624C15.0503 5.5188 13.2206 5.04095 11.8272 5.5188C11.5116 5.62782 11.2003 5.7466 10.8886 5.86555C10.7772 5.90805 10.6658 5.95056 10.5541 5.99266C10.2875 6.09757 9.9918 6.09757 9.72519 5.99266C9.65079 5.96427 9.57639 5.93614 9.50206 5.90804C9.28849 5.82731 9.07548 5.74679 8.86465 5.66076C8.22469 5.37791 7.51166 5.31199 6.83173 5.47282C5.4146 5.82871 4.48696 6.73844 3.97774 8.09803C3.55537 9.2157 3.55537 10.3694 3.75274 11.529C4.02627 13.2344 4.72916 14.8396 5.79355 16.1896C6.05207 16.5418 6.35611 16.8572 6.69751 17.1273C6.89797 17.2908 7.13312 17.405 7.3845 17.4609C7.63588 17.5167 7.89662 17.5127 8.14622 17.4492C8.48257 17.3569 8.81229 17.2413 9.13307 17.1033C9.71995 16.8375 10.3773 16.7763 11.0022 16.9294C11.3326 17.0321 11.6569 17.1542 11.9732 17.2953C12.3931 17.4731 12.8564 17.517 13.3015 17.4213C13.7776 17.294 14.2018 17.0176 14.5134 16.6315C15.0159 16.0538 15.4516 15.4199 15.8121 14.7421Z" fill="white"/>
</svg>

<svg xmlns="http://www.w3.org/2000/svg" viewBox="0 0 20 20">
  <rect width="100%" height="100%"/>
  <path fill="#fff" d="M9.97 5.27c1.87.18 3.49-1.96 3.22-3.77a3.42 3.42 0 0 0-2.4 1.26 3.25 3.25 0 0 0-.82 2.51Z"/>
  <path fill="#fff" d="M15.81 14.74c.27-.5.49-1.02.65-1.56-1.24-.6-2.01-1.54-2.1-2.96-.08-1.42.56-2.46 1.7-3.23l-.09-.13c-.92-1.34-2.75-1.82-4.14-1.34-.32.1-.63.23-.94.35l-.34.12c-.26.1-.56.1-.82 0a77.06 77.06 0 0 0-.87-.33 3.2 3.2 0 0 0-2.03-.19A3.96 3.96 0 0 0 3.98 8.1a6.46 6.46 0 0 0-.23 3.43c.28 1.7.98 3.31 2.04 4.66.26.35.57.67.9.94a1.66 1.66 0 0 0 1.46.32c.33-.1.66-.2.98-.35a2.87 2.87 0 0 1 1.87-.17c.33.1.66.22.97.37.42.17.89.22 1.33.12.48-.13.9-.4 1.21-.79.5-.58.94-1.21 1.3-1.89Z"/>
</svg>
